!!!!SEGMENT: pl-wnifc--6730-n--023_sowinski-wojciech--chants-religieux-de-la-pologne-op-93-sainte-kunegonde-o-vierge-reine-d-humilite-modele.krn
!!!cenid: 18xx:4037
!!!COM: Sowiński, Wojciech
!!!COM-rismID: pe30008543
!!!CDT: ~1803-1880/03/05
!!!CNT:
!!!GTL: Chants religieux de la Pologne op. 93
!!!OTL: Sainte Kunégonde/O Vierge Reine d'humilité modèle
!!!OMV: 023
!!!PDT: 1830
!!!AGN:
!!!SMS-siglum: PL-Wnifc
!!!SMS-shelfmark: 6730/n
!!!SMS-shelfwork: 001-023 G
!!!SMS-variant:
!!!SMS-altvar:
!!!NIFC-rismSourceID: 1001138221
!!!NIFC-rismChildID: 1001138246
!!!NIFC-islandoraID: nifc:213350
!!!URL-pdf-islandora: https://repozytorium.nifc.pl/islandora/object/nifc%3A213350/datastream/PDF/view
!!!URL-scan: https://polish.musicsources.pl/pl/lokalizacje/galeria/druki-muzyczne/16913 @EN{Scan on Polish Music Sources Website} @PL{Skany w portalu Dziedzictwo Muzyki Polskiej w otwartym dostępie}
!!!IIIF:
!!!ONB-nifc: UWAGA: str. 90-94
!!!AIN: 1 calto 2 organ 2 soprn
!!!key: F
**kern	**kern	**dynam	**kern	**text	**dynam	**kern	**text	**dynam	**kern	**text	**dynam
*part5	*part4	*part4	*part3	*part3	*part3	*part2	*part2	*part2	*part1	*part1	*part1
*staff5	*staff4	*	*staff3	*staff3	*	*staff2	*staff2	*	*staff1	*staff1	*
*I"Organo	*I"ORGUE.	*	*I"CONTRALTO.	*	*	*I"2.d DESSUS.	*	*	*I"1.er DESSUS.	*	*
*	*I'org	*	*I'Contra-A	*	*	*I'S 2	*	*	*I'S 1	*	*
*Iorgan	*Iorgan	*	*Icalto	*	*	*Isoprn	*	*	*Isoprn	*	*
*ICklav	*ICklav	*	*ICvox	*	*	*ICvox	*	*	*ICvox	*	*
*clefF4	*clefG2	*	*clefG2	*	*	*clefG2	*	*	*clefG2	*	*
*k[b-]	*k[b-]	*	*k[b-]	*	*	*k[b-]	*	*	*k[b-]	*	*
*F:	*F:	*	*F:	*	*	*F:	*	*	*F:	*	*
*M4/4	*M4/4	*	*M4/4	*	*	*M4/4	*	*	*M4/4	*	*
*met(c)	*met(c)	*	*met(c)	*	*	*met(c)	*	*	*met(c)	*	*
=1	=1	=1	=1	=1	=1	=1	=1	=1	=1	=1	=1
!	!LO:TX:a:B:t=Maesto.	!	!	!	!	!	!	!	!LO:TX:a:B:t=Maesto.	!	!
2c\	1r	p	1r	.	.	1r	.	.	1r	.	.
4A\	.	.	.	.	.	.	.	.	.	.	.
4c\	.	.	.	.	.	.	.	.	.	.	.
=2	=2	=2	=2	=2	=2	=2	=2	=2	=2	=2	=2
2B-\	2g/	p	1r	.	.	1r	.	.	1r	.	.
4c\	4e/	.	.	.	.	.	.	.	.	.	.
4B-\	4g/	.	.	.	.	.	.	.	.	.	.
=3	=3	=3	=3	=3	=3	=3	=3	=3	=3	=3	=3
2A^\	(>2f/ 2cc	.	1r	.	.	1r	.	.	1r	.	.
[4d\	4f/ 4a	.	.	.	.	.	.	.	.	.	.
4G\ 4d]	4f/) 4b-	.	.	.	.	.	.	.	.	.	.
=4	=4	=4	=4	=4	=4	=4	=4	=4	=4	=4	=4
4c\	2f/ 2a	.	1r	.	.	1r	.	.	1r	.	.
4Bn\	.	.	.	.	.	.	.	.	.	.	.
4c\	4e/ 4g	.	.	.	.	.	.	.	.	.	.
4C\	4cc/	.	.	.	.	.	.	.	.	.	.
=5	=5	=5	=5	=5	=5	=5	=5	=5	=5	=5	=5
!	!	!	!	!	!LO:DY:a	!	!	!LO:DY:a	!	!	!LO:DY:a
4FF/	4r	p	2f/	O	p	2a/	O	p	2cc\	O	p
4r	4a/ 4cc	.	.	.	.	.	.	.	.	.	.
4F\	4r	.	4f/	Vier-	.	4a/	Vier-	.	4a\	Vier-	.
4r	4f/ 4a	.	4f/	-ge	.	4a/	-ge	.	4cc\	-ge	.
=6	=6	=6	=6	=6	=6	=6	=6	=6	=6	=6	=6
4C/	4r	.	2c/	Rei-	.	2g/	Rei-	.	2b-\	Rei-	.
4r	4g/ 4b-	.	.	.	.	.	.	.	.	.	.
4c\	4r	.	4c/	-ne	.	4e/	-ne	.	4g\	-ne	.
4r	4e/ 4g	.	4c/	d`hu-	.	4g/	d`hu-	.	4b-\	d`hu-	.
!LO:LB:g=original	!LO:LB:g=original	!	!LO:LB:g=original	!	!	!LO:LB:g=original	!	!	!LO:LB:g=original	!	!
=7	=7	=7	=7	=7	=7	=7	=7	=7	=7	=7	=7
!	!	!	!	!	!LO:DY:a	!	!	!LO:DY:a	!	!	!LO:DY:a
4F\	4r	.	4f/	-mi-	<	4f/	-mi-	<	4a\	-mi-	<
4r	4f/ 4a	.	4f/	-li-	.	4a/	-li-	.	4cc\	-li-	.
!	!	!	!	!	!LO:DY:a	!	!	!LO:DY:a	!	!	!LO:DY:a
4A\	4r	.	4f/	-té	[ >	4a/	-té	[ >	4ff\	-té	[ >
4r	4f/ 4cc	.	4f/	mo-	]]	4f/	mo-	]]	4a\	mo-	]]
=8	=8	=8	=8	=8	=8	=8	=8	=8	=8	=8	=8
4c\	4r	.	2c/	-dè-	.	2f/	-dè-	.	2a/	-dè-	.
4r	4a\ 4ff	.	.	.	.	.	.	.	.	.	.
4C\	4r	.	2c/	-le	.	2e/	-le	.	2g/	-le	.
4r	4g\ 4ee	.	.	.	.	.	.	.	.	.	.
=9	=9	=9	=9	=9	=9	=9	=9	=9	=9	=9	=9
4F\	4a\ 4ff	.	1r	.	.	2a^>/	Aux	.	2cc^\	Aux	.
4r	4a\ 4cc	.	.	.	.	.	.	.	.	.	.
4F\	4r	.	.	.	.	4a/	cho-	.	4a\	cho-	.
4r	4f/ 4a	.	.	.	.	4a/	-ses	.	4cc\	-ses	.
=10	=10	=10	=10	=10	=10	=10	=10	=10	=10	=10	=10
4C\	4r	.	4r	.	.	2g/	sain-	.	2b-\	sain-	.
4r	4g/ 4b-	.	4c/	Aux	.	.	.	.	.	.	.
4c\	4r	.	4c/	cho-	.	4e/	-tes	.	4g\	-tes	.
4r	4e/ 4g	.	4c/	-ses	.	4g/	ton	.	4b-\	ton	.
=11	=11	=11	=11	=11	=11	=11	=11	=11	=11	=11	=11
!	!	!	!	!	!LO:DY:a	!	!	!LO:DY:a	!	!	!LO:DY:a
4F\	4f/ 4a	.	2f/	sain-	<	4f/	coeur	<	4a\	coeur	<
4r	4a/ 4cc	.	.	.	.	4a/	res-	.	4cc\	res-	.
4D\ 4d	4r	.	4f/	-tes	.	4a/	-ta	.	4ff\	-ta	.
!	!	!	!	!	!LO:DY:a	!	!	!LO:DY:a	!	!	!LO:DY:a
4r	4a\ 4ff	.	4f/	fi-	[ >	4f/	fi-	[ >	4a\	fi-	[ >
=12	=12	=12	=12	=12	=12	=12	=12	=12	=12	=12	=12
4C\	4r	.	2f/	-dè-	.	2f/	-dè-	.	2a/	-dè-	.
4r	4a\ 4ff	.	.	.	.	.	.	.	.	.	.
4C\ 4c	4r	.	2c/	-le	]]	2e/	-le	]]	2g/	-le	]]
4r	4g\ 4ee	.	.	.	.	.	.	.	.	.	.
!LO:LB:g=original	!LO:LB:g=original	!	!LO:LB:g=original	!	!	!LO:LB:g=original	!	!	!LO:LB:g=original	!	!
=13||	=13||	=13||	=13||	=13||	=13||	=13||	=13||	=13||	=13||	=13||	=13||
!	!	!	!	!	!LO:DY:a	!	!	!LO:DY:a	!	!	!LO:DY:a
8r	2g\ 2ee	mf	2c/	Nous	f	2e/	Nous	f	2g/	Nous	f
(8C\L	.	.	.	.	.	.	.	.	.	.	.
8c\)	.	.	.	.	.	.	.	.	.	.	.
8c'\J	.	.	.	.	.	.	.	.	.	.	.
2c'\	4g\ 4ee	.	4c/	cé-	.	4e/	cé-	.	4g/	cé-	.
.	4a\ 4ff	.	4c/	-lé-	.	4f/	-lé-	.	4a/	-lé-	.
=14	=14	=14	=14	=14	=14	=14	=14	=14	=14	=14	=14
8r	2b-\ 2gg	.	2c/	-brons	.	2g/	-brons	.	2b-/	-brons	.
(8C\L	.	.	.	.	.	.	.	.	.	.	.
8c\)	.	.	.	.	.	.	.	.	.	.	.
8c'\J	.	.	.	.	.	.	.	.	.	.	.
4c'\	2g\ 2ee	.	2c/	ta	.	2e/	ta	.	2g/	ta	.
4c'\	.	.	.	.	.	.	.	.	.	.	.
=15	=15	=15	=15	=15	=15	=15	=15	=15	=15	=15	=15
8r	4a\ 4ff	.	4f/	pi-	.	4f/	pi-	.	4a/	pi-	.
(8C\L	.	.	.	.	.	.	.	.	.	.	.
8c\)	4a\ 4ff	.	4f/	-eu-	.	4f/	-eu-	.	4a/	-eu-	.
8c'\J	.	.	.	.	.	.	.	.	.	.	.
2c\	4a\ 4ff	.	4f/	-se	.	4f/	-se	.	4a/	-se	.
.	4b-\ 4gg	.	4f/	vic-	.	4g/	vic-	.	4b-/	vic-	.
=16	=16	=16	=16	=16	=16	=16	=16	=16	=16	=16	=16
8r	2cc\ 2aa	.	2f/	-toi-	.	2a/	-toi-	.	2cc\	-toi-	.
(8C\L	.	.	.	.	.	.	.	.	.	.	.
8c\)	.	.	.	.	.	.	.	.	.	.	.
8c'\J	.	.	.	.	.	.	.	.	.	.	.
4r	2a\ 2ff	.	2f/	-re	.	2f/	-re	.	2a/	-re	.
4c\	.	.	.	.	.	.	.	.	.	.	.
=17	=17	=17	=17	=17	=17	=17	=17	=17	=17	=17	=17
!	!	!	!	!	!LO:DY:a	!	!	!LO:DY:a	!	!	!LO:DY:a
2F\ 2c	(8cc\L	.	2f/	No-	<	2a/	No-	<	2cc\	No-	<
.	8a\	.	.	.	.	.	.	.	.	.	.
.	8f\	.	.	.	.	.	.	.	.	.	.
.	8ff\J	.	.	.	.	.	.	.	.	.	.
4F\ 4c	8a\L	.	4f/	-tre	.	4a/	-tre	.	4ff\	-tre	.
.	8ff\	.	.	.	.	.	.	.	.	.	.
4F\ 4d	8b-\	.	4f/	voix	[	4b-/	voix	[	4dd\	voix	[
.	8ff\J)	.	.	.	.	.	.	.	.	.	.
!LO:LB:g=original	!LO:LB:g=original	!	!LO:LB:g=original	!	!	!LO:LB:g=original	!	!	!LO:LB:g=original	!	!
=18	=18	=18	=18	=18	=18	=18	=18	=18	=18	=18	=18
2F\ 2c	(8cc\L	.	2f/	chan-	.	2a/	chan-	.	2cc\	chan-	.
.	8a\	.	.	.	.	.	.	.	.	.	.
.	8f\	.	.	.	.	.	.	.	.	.	.
.	8ff\J	.	.	.	.	.	.	.	.	.	.
4BB-/	8dd\L	.	4B-/	-te	.	4f/	-te	.	4dd\	-te	.
.	8b-\	.	.	.	.	.	.	.	.	.	.
4B-\	8dd\	.	4B-/	ton	.	4g/	ton	.	4b-\	ton	.
.	8g\J)	.	.	.	.	.	.	.	.	.	.
=19	=19	=19	=19	=19	=19	=19	=19	=19	=19	=19	=19
4C/	(8a/L	.	4c/	é-	.	4f/	é-	.	4a/	é-	.
.	8f/	.	.	.	.	.	.	.	.	.	.
4r	8c/	.	4c/	-ter-	.	4f/	-ter-	.	4a/	-ter-	.
.	8cc/J	.	.	.	.	.	.	.	.	.	.
4C\ 4c	8b-\L	.	4c/	-nel-	.	4g/	-nel-	.	4b-/	-nel-	.
.	8cc\	.	.	.	.	.	.	.	.	.	.
4C\ 4c	8g\	.	4c/	-le	.	4e/	-le	.	4g/	-le	.
.	8ee\J)	.	.	.	.	.	.	.	.	.	.
=20	=20	=20	=20	=20	=20	=20	=20	=20	=20	=20	=20
(2C\ [<2c	(8ee\L	.	(4c/	gloi-	.	2e/	gloi-	.	2g/	gloi-	.
.	8cc\	.	.	.	.	.	.	.	.	.	.
.	8dd\	.	4B-/)	.	.	.	.	.	.	.	.
.	8ee\J	.	.	.	.	.	.	.	.	.	.
4F\) 4c]	8ff\L	.	2A/	-re	.	2f/	-re	.	2f/	-re	.
.	8cc\	.	.	.	.	.	.	.	.	.	.
4r	8a\	.	.	.	.	.	.	.	.	.	.
.	8f\J)	.	.	.	.	.	.	.	.	.	.
=21||	=21||	=21||	=21||	=21||	=21||	=21||	=21||	=21||	=21||	=21||	=21||
4CC/	2e/ 2g	f	1r	.	.	1r	.	.	1r	.	.
4C/	.	.	.	.	.	.	.	.	.	.	.
4C\ 4c	4e/ 4g	.	.	.	.	.	.	.	.	.	.
4BB-\ 4B-	4d/ 4g	.	.	.	.	.	.	.	.	.	.
=22	=22	=22	=22	=22	=22	=22	=22	=22	=22	=22	=22
2AA\ 2A	2c#X^/ 2a	.	1r	.	.	1r	.	.	1r	.	.
2GG\ 2G	2cn^/ 2e 2b-	.	.	.	.	.	.	.	.	.	.
!LO:LB:g=original	!LO:LB:g=original	!	!LO:LB:g=original	!	!	!LO:LB:g=original	!	!	!LO:LB:g=original	!	!
=23	=23	=23	=23	=23	=23	=23	=23	=23	=23	=23	=23
2FF\ 2F	2c^/ 2f 2a	.	1r	.	.	1r	.	.	1r	.	.
2BB-\	2d^/ 2f 2dd	.	.	.	.	.	.	.	.	.	.
=24	=24	=24	=24	=24	=24	=24	=24	=24	=24	=24	=24
2C\	(4.e\ 4.cc	fp	1r	.	.	1r	.	.	1r	.	.
!	!LO:TX:b:i:t=rall.	!	!	!	!	!	!	!	!	!	!
.	8b-\)	.	.	.	.	.	.	.	.	.	.
4c\	4g\	.	.	.	.	.	.	.	.	.	.
4r	4cc\	.	.	.	.	.	.	.	.	.	.
=25||	=25||	=25||	=25||	=25||	=25||	=25||	=25||	=25||	=25||	=25||	=25||
*	*^	*	*	*	*	*	*	*	*	*	*
!	!LO:TX:b:B:t=a tempo.	!	!	!	!	!	!	!	!LO:DY:a	!LO:TX:a:t=2.me STROPHE.	!	!LO:DY:a
2.F\	[2cc/	4a\	f	1r	.	.	2a/	O	p	2cc\	O	p
.	.	4g#X\	.	.	.	.	.	.	.	.	.	.
.	4cc/]	4a\	.	.	.	.	4f/	rei-	.	4a\	rei-	.
4A\	4ryy	4f\	.	.	.	.	4a/	-ne	.	4cc\	-ne	.
=26	=26	=26	=26	=26	=26	=26	=26	=26	=26	=26	=26	=26
2c\	2b-/ 2cc	2.g\	<	2c^/	O	.	2g/	chas-	.	2b-\	chas-	.
2C\	4dd/	.	.	4c/	rei-	.	4e/	-te	.	4g\	-te	.
.	4ee/	4b-\	.	4c/	-ne	.	4g/	pa-	.	4b-\	pa-	.
=27	=27	=27	=27	=27	=27	=27	=27	=27	=27	=27	=27	=27
!	!	!	!	!	!	!LO:DY:a	!	!	!LO:DY:a	!	!	!LO:DY:a
2F\	4ff/	2.a\	[	4f/	chas-	<	4f/	-tron-	<	4a\	-tron-	<
.	4cc/	.	.	4f/	-te	.	4a/	-ne	.	4cc\	-ne	.
4c\	4a/	.	.	4f/	vé-	.	4a/	vé-	.	4ff\	vé-	.
!	!	!	!	!	!	!LO:DY:a	!	!	!LO:DY:a	!	!	!LO:DY:a
8A\L	4f/	4ryy	.	4f/	-né-	[ >	4f/	-né-	[ >	4a\	-né-	[ >
8F\J	.	.	.	.	.	.	.	.	.	.	.	.
*	*v	*v	*	*	*	*	*	*	*	*	*	*
=28	=28	=28	=28	=28	=28	=28	=28	=28	=28	=28	=28
*^	*	*	*	*	*	*	*	*	*	*	*
4c/	2C\	(2f/ 2a	>	2c/	-ré-	.	2f/	-ré-	.	2a/	-ré-	.
4Bn/	.	.	.	.	.	.	.	.	.	.	.	.
(8c\L	4c/	4e/) 4g	]	2c/	-e	]	2e/	-e	]	2g/	-e	]
8B-X\	.	.	.	.	.	.	.	.	.	.	.	.
8A\	4ryy	4cc\	.	.	.	.	.	.	.	.	.	.
8G\J)	.	.	.	.	.	.	.	.	.	.	.	.
!LO:PB:g=original	!LO:PB:g=original	!LO:PB:g=original	!	!LO:PB:g=original	!	!	!LO:PB:g=original	!	!	!LO:PB:g=original	!	!
*v	*v	*	*	*	*	*	*	*	*	*	*	*
=29	=29	=29	=29	=29	=29	=29	=29	=29	=29	=29	=29
*	*^	*	*	*	*	*	*	*	*	*	*
2F\	4ff\	2ryy	.	1r	.	.	2a/	De	.	2cc\	De	.
.	4cc\	.	.	.	.	.	.	.	.	.	.	.
4F\	2cc/	4a\	.	.	.	.	4f/	la	.	4a\	la	.
4A\	.	4f\	.	.	.	.	4a/	pa-	.	4cc\	pa-	.
=30	=30	=30	=30	=30	=30	=30	=30	=30	=30	=30	=30	=30
2c\	(4cc/	4e\	.	2r	.	.	2g/	-tri-	.	2b-\	-tri-	.
.	4cc/	4ryy	.	.	.	.	.	.	.	.	.	.
2C\	4dd/	2b-\	.	4r	.	.	4e/	-e	.	4g\	-e	.
.	4ee/)	.	.	4c/	Sau-	.	4g/	sau-	.	4b-\	sau-	.
=31	=31	=31	=31	=31	=31	=31	=31	=31	=31	=31	=31	=31
*^	*	*	*	*	*	*	*	*	*	*	*	*
!	!	!	!	!	!	!	!LO:DY:a	!	!	!LO:DY:a	!	!	!LO:DY:a
4F\	2ryy	4ff/	4a\	<	4f/	-ve-	<	4f/	-ve-	<	4a\	-ve-	<
4E\	.	4cc/	4g\	.	4e/	-gar-	.	4a/	-gar-	.	4cc\	-gar-	.
4A/	4D\	4ff/	4f\	.	4d/	-de	.	4a/	-de	.	4ff\	-de	.
!	!	!	!	!	!	!	!LO:DY:a	!	!	!LO:DY:a	!	!	!LO:DY:a
4Bn/	4BB-\	4a/	4f\	[ sf	4Bn/	sa-	[ >	4a/	sa-	[ >	4a\	sa-	[ >
*v	*v	*	*	*	*	*	*	*	*	*	*	*	*
=32	=32	=32	=32	=32	=32	=32	=32	=32	=32	=32	=32	=32
2C\ 2c	4a/	2f\ 2a	.	2c/	-cré-	.	2f/	-cré-	.	2a\	-cré-	.
.	4cc/	.	.	.	.	.	.	.	.	.	.	.
4C\ 4c	4cc/	2e\ 2g	.	2c/	-e	]	2e/	-e	]	2g\	-e	]
4r	4cc/	.	.	.	.	.	.	.	.	.	.	.
*	*v	*v	*	*	*	*	*	*	*	*	*	*
=33||	=33||	=33||	=33||	=33||	=33||	=33||	=33||	=33||	=33||	=33||	=33||
!	!	!	!	!	!	!	!	!LO:DY:a	!	!	!LO:DY:a
2CC/ 2C	4e\ 4g 4cc	f	1r	.	.	2e/	Nous	f	2g/	Nous	f
.	2cc\	.	.	.	.	.	.	.	.	.	.
2C\ 2c	.	.	.	.	.	4e/	cé-	.	4g/	cé-	.
!	!LO:TX:a:t=P:problem:♮ above	!	!	!	!	!	!	!	!	!	!
.	4ccn\	.	.	.	.	4f/	-lé-	.	4a/	-lé-	.
=34	=34	=34	=34	=34	=34	=34	=34	=34	=34	=34	=34
2CC^/ 2C	8r	.	4r	.	.	2g/	-brons	.	2b-/	-brons	.
.	(8cc\L	.	.	.	.	.	.	.	.	.	.
!	!	!	!	!	!LO:DY:a	!	!	!	!	!	!
.	8ee\	.	4c/	Nous	f	.	.	.	.	.	.
.	8gg\J)	.	.	.	.	.	.	.	.	.	.
2EE^/ 2E	4cc\ 4bb-	.	4c/	cé-	.	2e/	la	.	2g/	la	.
.	4cc\ 4gg	.	4c/	-lé-	.	.	.	.	.	.	.
!LO:LB:g=original	!LO:LB:g=original	!	!LO:LB:g=original	!	!	!LO:LB:g=original	!	!	!LO:LB:g=original	!	!
=35	=35	=35	=35	=35	=35	=35	=35	=35	=35	=35	=35
2FF\ 2F	(8ff\L	.	2f/	-brons	.	4f/	pi-	.	4a\	pi-	.
.	8cc\	.	.	.	.	.	.	.	.	.	.
!	!	!	!	!	!	!	!	!LO:HP:t=cres	!	!	!LO:HP:t=cres
.	8dd\	.	.	.	.	4f/	-eu-	<	4a\	-eu-	<
.	8ee\J)	.	.	.	.	.	.	.	.	.	.
4F\ 4c	(8ff\L	.	2r	.	.	4f/	-se	.	4a\	-se	.
.	8cc\	.	.	.	.	.	.	.	.	.	.
4F\ 4e	8gg\	.	.	.	.	4g/	vic-	.	4b-\	vic-	.
.	8cc\J)	.	.	.	.	.	.	.	.	.	.
=36	=36	=36	=36	=36	=36	=36	=36	=36	=36	=36	=36
4F\ 4f	(8aa\L	.	4r	.	.	2a/	-toi-	.	2cc\	-toi-	.
.	8gg\	.	.	.	.	.	.	.	.	.	.
!	!	!	!	!	!LO:DY:a	!	!	!	!	!	!
4F^\	8ff\	.	4f/	nous	f	.	.	.	.	.	.
.	8ee\J	.	.	.	.	.	.	.	.	.	.
4F^\	8ff\L)	.	4f/	cé-	.	2f/	-re	.	2a\	-re	.
.	(8a\	.	.	.	.	.	.	.	.	.	.
4F^\	8b-\	.	4f/	-lé-	.	.	.	.	.	.	.
.	8bn\J)	.	.	.	.	.	.	.	.	.	.
=37	=37	=37	=37	=37	=37	=37	=37	=37	=37	=37	=37
!	!	!	!	!	!	!	!	!LO:DY:a	!	!	!LO:DY:a
2FF\ 2F	(8cc\L	f	2f/	-brons	.	2a/	No-	f	2cc\	No-	f
.	8a\	.	.	.	.	.	.	.	.	.	.
.	8f\	.	.	.	.	.	.	.	.	.	.
.	8ff\J)	.	.	.	.	.	.	.	.	.	.
4F\ 4c	(8a\L	.	4f/	ta	.	4a/	-tre	.	4ff\	-tre	.
.	8ff\	.	.	.	.	.	.	.	.	.	.
4F\ 4d	8b-\	.	4f/	vic-	.	4b-/	voix	.	4dd\	voix	.
.	8ff\J)	.	.	.	.	.	.	.	.	.	.
=38	=38	=38	=38	=38	=38	=38	=38	=38	=38	=38	=38
2F\ 2c	(8cc\L	.	2f/	-toire	.	2a/	chan-	.	2cc\	chan-	.
.	8ff\	.	.	.	.	.	.	.	.	.	.
.	8cc\	.	.	.	.	.	.	.	.	.	.
.	8a\J)	.	.	.	.	.	.	.	.	.	.
4BB-\ 4B-	(8dd\L	.	4B-^>/	Et	.	4f/	-te	.	4dd\	-te	.
.	8b-\	.	.	.	.	.	.	.	.	.	.
4BB-\ 4B-	8dd\	.	4d^>/	ton	.	4f/	ton	.	4b-\	ton	.
.	8f\J)	.	.	.	.	.	.	.	.	.	.
=39	=39	=39	=39	=39	=39	=39	=39	=39	=39	=39	=39
2C\ 2c	(8a/L	.	4c/	é-	.	4f/	é-	.	4a/	é-	.
.	8f/	.	.	.	.	.	.	.	.	.	.
!	!	!	!	!	!LO:DY:a	!	!	!LO:DY:a	!	!	!LO:DY:a
.	8a/	>	4c/	-ter-	>	4f/	-ter-	>	4a/	-ter-	>
.	8cc/J)	.	.	.	.	.	.	.	.	.	.
4CC/ 4C	(8b-/L	.	4c/	-nel-	.	4g/	-nel-	.	4b-/	-nel-	.
.	8g/	.	.	.	.	.	.	.	.	.	.
4CC/ 4C	8b-/	.	4c/	-le	]]	4e/	-le	]]	4g/	-le	]]
.	8g/J)	]]	.	.	.	.	.	.	.	.	.
!LO:LB:g=original	!LO:LB:g=original	!	!LO:LB:g=original	!	!	!LO:LB:g=original	!	!	!LO:LB:g=original	!	!
=40	=40	=40	=40	=40	=40	=40	=40	=40	=40	=40	=40
*^	*	*	*	*	*	*	*	*	*	*	*
4c/	2C\	(8g\L	p	2c/	gloi-	.	2e/	gloi-	.	2g/	gloi-	.
.	.	8cc\	.	.	.	.	.	.	.	.	.	.
4B-/	.	8dd\	.	.	.	.	.	.	.	.	.	.
.	.	8ee\J)	.	.	.	.	.	.	.	.	.	.
2A/	2F\	2a\ 2ff	.	2f/	-re	.	2f/	-re	.	2f/	-re	.
*v	*v	*	*	*	*	*	*	*	*	*	*	*
=41||	=41||	=41||	=41||	=41||	=41||	=41||	=41||	=41||	=41||	=41||	=41||
2FF\ 2F	2f\ 2a 2cc	f	1r	.	.	1r	.	.	1r	.	.
2AA\ 2A	4f\ 4cc 4ff	.	.	.	.	.	.	.	.	.	.
.	4f\ 4cc 4ee	.	.	.	.	.	.	.	.	.	.
=42	=42	=42	=42	=42	=42	=42	=42	=42	=42	=42	=42
2BB-\ 2B-	2f\ 2b- 2dd	.	1r	.	.	1r	.	.	1r	.	.
2C\ 2c	2f\ 2a 2cc	.	.	.	.	.	.	.	.	.	.
=43	=43	=43	=43	=43	=43	=43	=43	=43	=43	=43	=43
*	*^	*	*	*	*	*	*	*	*	*	*
2D\ 2d	2a-X\ 2bn	2f\	.	1r	.	.	1r	.	.	1r	.	.
2E\ 2e	4.b-X/	2g\	.	.	.	.	.	.	.	.	.	.
.	8cc/	.	.	.	.	.	.	.	.	.	.	.
=44	=44	=44	=44	=44	=44	=44	=44	=44	=44	=44	=44	=44
2F\ 2f	2an/	2f\	.	1r	.	.	1r	.	.	1r	.	.
2r	2r	2ryy	.	.	.	.	.	.	.	.	.	.
*	*v	*v	*	*	*	*	*	*	*	*	*	*
=45	=45	=45	=45	=45	=45	=45	=45	=45	=45	=45	=45
!	!	!	!	!	!LO:DY:a	!	!	!LO:DY:a	!LO:TX:a:t=3.me STROPHE.	!	!
2FF\ 2F	(2a\ 2cc	p	2a/	De	p	2cc\	De	p	1r	.	.
4FF\ 4F	4f\ 4a	.	4f/	la	.	4a\	la	.	.	.	.
4FF\ 4F	4a\) 4cc	.	4a/	souf-	.	4cc\	souf-	.	.	.	.
!LO:LB:g=original	!LO:LB:g=original	!	!LO:LB:g=original	!	!	!LO:LB:g=original	!	!	!LO:LB:g=original	!	!
=46	=46	=46	=46	=46	=46	=46	=46	=46	=46	=46	=46
2C\ 2c	(2g\ 2b-	.	2g/	-fran-	.	2b-\	-fran-	.	2r	.	.
4C\ 4c	4e\ 4g	.	4e/	-ce	.	4g/	-ce	.	4r	.	.
!	!	!	!	!	!	!	!	!	!	!	!LO:DY:a
!	!	!	!	!	!	!	!	!	!	!	!LO:DY:a
4C\ 4c	4g\) 4b-	.	4e/	sain-	.	4g/	sain-	.	4b-\	Sain-	p <
=47	=47	=47	=47	=47	=47	=47	=47	=47	=47	=47	=47
*	*^	*	*	*	*	*	*	*	*	*	*
2F\	(4a/	2f\	<	4f/	-te	.	4a/	-te	.	4a\	-te	.
.	4cc/	.	.	4f/	con-	.	4a/	con-	.	4cc\	con-	.
!	!	!	!	!	!	!	!	!	!	!	!	!LO:DY:a
4F\ 4A	4ff\	4a\	[ >	4f/	-so-	.	4a/	-so-	.	4ff\	-so-	[ >
4F\ 4Bn	4a\)	4f\	.	4f/	-la-	.	4f/	-la-	.	4a\	-la-	]]
*	*v	*v	*	*	*	*	*	*	*	*	*	*
=48	=48	=48	=48	=48	=48	=48	=48	=48	=48	=48	=48
2c\	(2f\ 2a	]	2c/	-tri-	.	2f/	-tri-	.	2a/	-tri-	.
2C\	2e\) 2g	.	2c/	-ce	.	2e/	-ce	.	2g/	-ce	.
=49	=49	=49	=49	=49	=49	=49	=49	=49	=49	=49	=49
2FF\ 2F	4r	.	1r	.	.	2a/	Dans	.	2cc\	Dans	.
.	(4a\ 4cc	p	.	.	.	.	.	.	.	.	.
4FF\ 4F	4f\ 4a	.	.	.	.	4f/	nos	.	4a\	nos	.
4FF\ 4F	4a\) 4cc	.	.	.	.	4a/	mi-	.	4cc\	mi-	.
=50	=50	=50	=50	=50	=50	=50	=50	=50	=50	=50	=50
2.C\ 2.c	4r	.	2r	.	.	2g/	-sè-	.	2b-\	-sè-	.
.	(4g\ 4b-	.	.	.	.	.	.	.	.	.	.
.	4e\ 4g	.	4r	.	.	4e/	-res	.	4g\	-res	.
4C\ 4c	4g\) 4b-	.	4c/	sois	.	4g/	sois	.	4b-\	sois	.
!LO:LB:g=original	!LO:LB:g=original	!	!LO:LB:g=original	!	!	!LO:LB:g=original	!	!	!LO:LB:g=original	!	!
=51	=51	=51	=51	=51	=51	=51	=51	=51	=51	=51	=51
*^	*^	*	*	*	*	*	*	*	*	*	*
!	!	!	!	!	!	!	!	!	!	!LO:DY:a	!	!	!LO:DY:a
2c/	4F\	(4a/	4f\	.	4f/	no-	.	4f/	no-	<	4a\	no-	<
.	4E\	4cc/	4g\	.	4e/	-tre	.	4g/	-tre	.	4cc\	-tre	.
!	!	!	!	!	!	!	!	!	!	!LO:DY:a	!	!	!LO:DY:a
4d\	4D\	4ff/	4f\ 4a	.	4d/	pro-	.	4a/	pro-	[ >	4ff\	pro-	[ >
4Bn\	4BBn\	4a/)	4f/	.	4Bn/	-tec-	.	4f/	-tec-	]]	4a\	-tec-	]]
*v	*v	*	*	*	*	*	*	*	*	*	*	*	*
*	*v	*v	*	*	*	*	*	*	*	*	*	*
=52	=52	=52	=52	=52	=52	=52	=52	=52	=52	=52	=52
4C\	(>2f/ 2a	.	2c/	-tri-	.	2f/	-tri-	.	2a/	-tri-	.
8c\L	.	.	.	.	.	.	.	.	.	.	.
8Bn\J	.	.	.	.	.	.	.	.	.	.	.
2c\	2e/) 2g	.	2c/	-ce	.	2e/	-ce	.	2g/	-ce	.
=53||	=53||	=53||	=53||	=53||	=53||	=53||	=53||	=53||	=53||	=53||	=53||
!	!	!	!	!	!LO:DY:a	!	!	!LO:DY:a	!	!	!
2C\	4r	f	2e/	Nous	f	2g/	Nous	f	1r	.	.
.	(>4e/ 4g	.	.	.	.	.	.	.	.	.	.
2c\	4g/ 4b-	.	4e/	cé-	.	4g/	cé-	.	.	.	.
.	4f/) 4a	.	4f/	-lé-	.	4a/	-lé-	.	.	.	.
=54	=54	=54	=54	=54	=54	=54	=54	=54	=54	=54	=54
*^	*	*	*	*	*	*	*	*	*	*	*
4C\	2ryy	4e/ 4g	.	2g/	-brons	.	2b-/	-brons	.	4r	.	.
!	!	!	!	!	!	!	!	!	!	!	!	!LO:DY:a
4r	.	4cc/	.	.	.	.	.	.	.	4cc\	Nous	f
2e/	4c\	4cc/	.	2e/	ta	.	2g/	ta	.	4cc\	cé-	.
.	4B-\	4cc/	.	.	.	.	.	.	.	4cc\	-lé-	.
*v	*v	*	*	*	*	*	*	*	*	*	*	*
=55	=55	=55	=55	=55	=55	=55	=55	=55	=55	=55	=55
!	!	!	!	!	!LO:DY:a	!	!	!LO:DY:a	!	!	!
2A\ 2f	4r	.	4f/	pi-	<	4a/	pi-	<	2cc\	-brons	.
.	(4a\	.	4f/	-eu-	.	4a/	-eu-	.	.	.	.
2F\	4a\ 4cc	.	4f/	-se	.	4a/	-se	.	2r	.	.
.	4g\) 4b-	.	4g/	vic-	[[	4b-/	vic-	[[	.	.	.
!LO:LB:g=original	!LO:LB:g=original	!	!LO:LB:g=original	!	!	!LO:LB:g=original	!	!	!LO:LB:g=original	!	!
=56	=56	=56	=56	=56	=56	=56	=56	=56	=56	=56	=56
*^	*^	*	*	*	*	*	*	*	*	*	*
2F\	2FF\	2a\	2f\	.	2a/	-toi-	.	2cc\	-toi-	.	4r	.	.
!	!	!	!	!	!	!	!	!	!	!	!	!	!LO:DY:a
.	.	.	.	.	.	.	.	.	.	.	4f/	Nous	<
4F/	2F\	(4a/	2f\	.	2f/	-re	.	2a\	-re	.	4a/	cé-	.
4G/	.	4b-/	.	.	.	.	.	.	.	.	4b-/	-lé-	[[
*v	*v	*	*	*	*	*	*	*	*	*	*	*	*
*	*v	*v	*	*	*	*	*	*	*	*	*	*
=57	=57	=57	=57	=57	=57	=57	=57	=57	=57	=57	=57
!	!	!	!	!	!	!	!	!	!	!	!LO:DY:a
2F\ 2A	2cc\)	<	2f/	No-	.	2a\	No-	.	2cc\	-brons	f
4F\ 4f	(4dd\ 4ff	[	4f/	-tre	.	4dd\	-tre	.	4ff\	ta	.
4F\ 4f	4b-\ 4dd	.	4f/	voix	.	4b-\	voix	.	4b-\	vic-	.
=58	=58	=58	=58	=58	=58	=58	=58	=58	=58	=58	=58
2F\ 2f	2a\) 2cc	<	2f/	chan-	.	2a\	chan-	.	2cc\	-toire	.
4BB-\ 4B-	(4b-\ 4dd	[	4B-/	-te	.	4b-\	-te	.	4dd\	Et	.
4BB-\ 4B-	4g\ 4b-	.	4B-/	ton	.	4g\	ton	.	4b-\	ton	.
=59	=59	=59	=59	=59	=59	=59	=59	=59	=59	=59	=59
4C\	(2f\) 2a	.	4c/	é-	.	4f/	é-	.	4a/	é-	.
!	!	!	!	!	!LO:DY:a	!	!	!LO:DY:a	!	!	!
4c\	.	.	4c/	-ter-	>	4f/	-ter-	>	4a/	-ter-	.
4C\	4g\ 4b-	.	4c/	-nel-	.	4g/	-nel-	.	4b-/	-nel-	.
4c\	4e\) 4g	.	4c/	-le	]]	4e/	-le	]]	4g/	-le	.
=60	=60	=60	=60	=60	=60	=60	=60	=60	=60	=60	=60
*^	*^	*	*	*	*	*	*	*	*	*	*
!	!	!	!	!	!	!	!LO:DY:a	!	!	!	!	!	!
4c/	2F\	4cc/	2g\	>	(4c/	gloi-	>	2e^>/	gloi-	.	2g^>/	gloi-	.
4B-/	.	4ee/	.	]	4B-/)	.	.	.	.	.	.	.	.
2A;/	2F\	2ff;/	2f\	.	2A;/	-re	]	2f;/	-re	.	2f;/	-re	.
*v	*v	*	*	*	*	*	*	*	*	*	*	*	*
*	*v	*v	*	*	*	*	*	*	*	*	*	*
==	==	==	==	==	==	==	==	==	==	==	==
*-	*-	*-	*-	*-	*-	*-	*-	*-	*-	*-	*-
!!!RDF**kern: > = above
!!!RDF**kern: < = below
!!!system-decoration: [(s1,s2,s3)][(s4,s5)]
!!!ENC: Filip Voros
!!!END: 2022-08-11
!!!ENC: Julita Ruszuk
!!!END: 2022-09-13
!!!YEC: Copyright 2022 Narodowy Instytut Fryderyka Chopina (https://polishscores.org)
!!!YEM: License CC-BY-4.0 (https://creativecommons.org/licenses/by/4.0)
